X:183
T:Maud Millar
R:reel
D:Mary Bergin: Feadoga Stain
Z:id:hn-reel-183
M:C|
K:Edor
edBA GBDE|G2BG dGBd|eBdB ABGA|1 Beed e2gf:|2 Beed ~e3z||
dega bg~g2|agef ~g3e|dega bg~g2|aged gage|
dega bg~g2|agef ~g3a|b2af gfed|Beed ~e3g||
P:variations
|:edBA GEDE|G2BG DGBd|e2dB A2GA|1 Beed efgf:|2 Beed e2ge||
dega bg~g2|agef gfge|dega bg~g2|aged eage|
dega bg~g2|agef gfga|bgaf gfed|Beed e2gf||

